images/logo/logo.svg

<svg width="251" height="34" viewBox="0 0 251 34" fill="none" xmlns="http://www.w3.org/2000/svg">
<path d="M142.806 33.0967C141.892 33.0967 141.135 32.7958 140.533 32.1941C139.931 31.5812 139.641 30.8345 139.641 29.9319C139.641 29.0293 139.931 28.2715 140.533 27.6697C141.135 27.068 141.892 26.7671 142.806 26.7671C143.352 26.7671 143.865 26.8897 144.333 27.1571C144.801 27.4134 145.169 27.7589 145.436 28.2046L144.088 28.9735C143.976 28.7618 143.798 28.5947 143.575 28.4721C143.341 28.3384 143.085 28.2826 142.806 28.2826C142.316 28.2826 141.926 28.4275 141.625 28.7395C141.335 29.0404 141.179 29.4416 141.179 29.9319C141.179 30.4222 141.335 30.8234 141.625 31.1243C141.926 31.4252 142.316 31.5812 142.806 31.5812C143.085 31.5812 143.341 31.5143 143.575 31.3917C143.798 31.2691 143.976 31.0908 144.088 30.8791L145.436 31.6592C145.169 32.1049 144.801 32.4504 144.333 32.7067C143.865 32.963 143.363 33.0967 142.806 33.0967ZM162.675 32.1829C162.062 32.7847 161.305 33.0967 160.413 33.0967C159.522 33.0967 158.775 32.7847 158.162 32.1829C157.538 31.57 157.237 30.8234 157.237 29.9319C157.237 29.0404 157.538 28.2938 158.162 27.6809C158.775 27.068 159.522 26.7671 160.413 26.7671C161.305 26.7671 162.062 27.068 162.675 27.6809C163.288 28.2938 163.6 29.0404 163.6 29.9319C163.6 30.8234 163.288 31.57 162.675 32.1829ZM159.243 31.1131C159.555 31.4252 159.945 31.5812 160.413 31.5812C160.881 31.5812 161.271 31.4252 161.583 31.1131C161.895 30.8011 162.051 30.4111 162.051 29.9319C162.051 29.4527 161.895 29.0515 161.583 28.7507C161.271 28.4386 160.881 28.2826 160.413 28.2826C159.945 28.2826 159.555 28.4386 159.243 28.7507C158.931 29.0515 158.775 29.4527 158.775 29.9319C158.775 30.4111 158.931 30.8011 159.243 31.1131ZM182.132 26.8897V32.963H180.594V29.6979L179.112 32.1272H178.956L177.496 29.709V32.963H175.936V26.8897H177.496L179.034 29.4862L180.594 26.8897H182.132ZM197.076 26.8897C197.689 26.8897 198.201 27.0903 198.625 27.4914C199.037 27.8926 199.249 28.4052 199.249 29.0181C199.249 29.6422 199.037 30.1436 198.625 30.5448C198.201 30.946 197.689 31.1466 197.076 31.1466H196.273V32.963H194.713V26.8897H197.076ZM197.076 29.6645C197.254 29.6645 197.399 29.6087 197.51 29.4862C197.633 29.3636 197.689 29.2076 197.689 29.0181C197.689 28.8287 197.633 28.6727 197.51 28.5501C197.399 28.4386 197.254 28.3718 197.076 28.3718H196.273V29.6645H197.076ZM214.694 32.963L214.393 32.0938H212.331L212.075 32.963H210.392L212.32 26.8897H214.282L216.287 32.963H214.694ZM212.733 30.7565H213.958L213.334 28.6838L212.733 30.7565ZM231.699 26.8897H233.237V32.963H232.045L229.905 29.9096V32.963H228.356V26.8897H229.56L231.699 29.943V26.8897ZM251 26.8897L248.95 30.634V32.963H247.401V30.6451L245.35 26.8897H247.089L248.169 29.1407L249.25 26.8897H251Z" fill="#2B2A28"/>
<path fill-rule="evenodd" clip-rule="evenodd" d="M174.042 0.066864L190.824 18.8439H184.461L167.679 0.066864H174.042Z" fill="#CB8734"/>
<path fill-rule="evenodd" clip-rule="evenodd" d="M192.752 0.066864L209.534 18.8439H203.183L186.4 0.066864H192.752Z" fill="#CB8734"/>
<path fill-rule="evenodd" clip-rule="evenodd" d="M211.518 0.066864L228.3 18.8439H221.937L205.155 0.066864H211.518Z" fill="#CB8734"/>
<path fill-rule="evenodd" clip-rule="evenodd" d="M240.636 12.4252L246.364 18.8439H241.249L235.51 12.4252L231.376 7.86743H244.225C245.138 7.86743 245.896 7.1208 245.896 6.20702C245.896 5.30439 245.138 4.54662 244.225 4.54662H228.768L224.211 0H244.225C247.646 0 250.443 2.79706 250.443 6.20702C250.443 9.62813 247.646 12.4252 244.225 12.4252H240.636ZM0 0.066862H12.8932H17.4398H30.3331V4.61348H17.4398V18.8439H12.8932V4.61348H0V0.066862ZM53.4785 0.066862H68.2104C73.1025 0.066862 77.1031 4.06744 77.1031 8.94837V9.9513C77.1031 14.8434 73.1025 18.8439 68.2104 18.8439H53.4785C48.5864 18.8439 44.5858 14.8434 44.5858 9.9513V8.94837C44.5858 4.06744 48.5864 0.066862 53.4785 0.066862ZM53.4785 4.61348H68.2104C70.5952 4.61348 72.5453 6.56362 72.5453 8.94837V9.9513C72.5453 12.336 70.5952 14.2862 68.2104 14.2862H53.4785C51.0937 14.2862 49.1436 12.336 49.1436 9.9513V8.94837C49.1436 6.56362 51.0937 4.61348 53.4785 4.61348ZM98.7218 0.066862V10.1519L98.8109 10.0516L114.423 0.066862H122.569L110.021 7.90086L125.567 18.8439H117.332L105.609 10.6533L98.7218 14.9548V18.8439H94.164V14.9548V0.066862H98.7218ZM154.607 0.100293L171.769 18.8439H150.44L154.986 14.2862H161.427L154.652 6.87564L143.72 18.8439H137.836L154.607 0.100293Z" fill="#2B2A28"/>
</svg>

<svg width="251" height="34" fill="none" xmlns="http://www.w3.org/2000/svg"><path d="M142.806 33.097c-.914 0-1.671-.301-2.273-.903-.602-.613-.892-1.36-.892-2.262 0-.903.29-1.66.892-2.262.602-.602 1.359-.903 2.273-.903.546 0 1.059.123 1.527.39.468.256.836.602 1.103 1.048l-1.348.769a1.24 1.24 0 0 0-.513-.502 1.513 1.513 0 0 0-.769-.19c-.49 0-.88.145-1.181.457-.29.301-.446.703-.446 1.193 0 .49.156.891.446 1.192.301.301.691.457 1.181.457.279 0 .535-.067.769-.19.223-.122.401-.3.513-.512l1.348.78a2.849 2.849 0 0 1-1.103 1.048c-.468.256-.97.39-1.527.39zm19.869-.914c-.613.602-1.37.914-2.262.914a3.095 3.095 0 0 1-2.251-.914c-.624-.613-.925-1.36-.925-2.251 0-.892.301-1.638.925-2.251.613-.613 1.36-.914 2.251-.914.892 0 1.649.301 2.262.914s.925 1.36.925 2.25c0 .892-.312 1.639-.925 2.252zm-3.432-1.07c.312.312.702.468 1.17.468.468 0 .858-.156 1.17-.468.312-.312.468-.702.468-1.181 0-.48-.156-.88-.468-1.181-.312-.312-.702-.468-1.17-.468-.468 0-.858.156-1.17.468-.312.3-.468.702-.468 1.18 0 .48.156.87.468 1.182zm22.889-4.223v6.073h-1.538v-3.265l-1.482 2.43h-.156l-1.46-2.419v3.254h-1.56V26.89h1.56l1.538 2.596 1.56-2.596h1.538zm14.944 0c.613 0 1.125.2 1.549.601.412.402.624.914.624 1.527 0 .624-.212 1.126-.624 1.527-.424.401-.936.602-1.549.602h-.803v1.816h-1.56V26.89h2.363zm0 2.774a.555.555 0 0 0 .434-.178.629.629 0 0 0 .179-.468.629.629 0 0 0-.179-.468.594.594 0 0 0-.434-.178h-.803v1.293h.803zm17.618 3.299-.301-.87h-2.062l-.256.87h-1.683l1.928-6.073h1.962l2.005 6.073h-1.593zm-1.961-2.207h1.225l-.624-2.072-.601 2.072zm18.966-3.866h1.538v6.073h-1.192l-2.14-3.053v3.053h-1.549V26.89h1.204l2.139 3.053V26.89zm19.301 0-2.05 3.744v2.329h-1.549v-2.318l-2.051-3.755h1.739l1.08 2.25 1.081-2.25H251z" fill="#2B2A28"/><path fill-rule="evenodd" clip-rule="evenodd" d="m174.042.067 16.782 18.777h-6.363L167.679.067h6.363zM192.752.067l16.782 18.777h-6.351L186.4.067h6.352zM211.518.067 228.3 18.844h-6.363L205.155.067h6.363z" fill="#CB8734"/><path fill-rule="evenodd" clip-rule="evenodd" d="m240.636 12.425 5.728 6.419h-5.115l-5.739-6.419-4.134-4.558h12.849c.913 0 1.671-.746 1.671-1.66 0-.903-.758-1.66-1.671-1.66h-15.457L224.211 0h20.014c3.421 0 6.218 2.797 6.218 6.207 0 3.421-2.797 6.218-6.218 6.218h-3.589zM0 .067H30.333v4.546H17.44v14.23h-4.547V4.614H0V.067zm53.478 0H68.21c4.893 0 8.893 4 8.893 8.881v1.003c0 4.892-4 8.893-8.893 8.893H53.48c-4.893 0-8.893-4-8.893-8.893V8.948c0-4.88 4-8.881 8.892-8.881zm0 4.546H68.21a4.347 4.347 0 0 1 4.335 4.335v1.003a4.347 4.347 0 0 1-4.335 4.335H53.48a4.347 4.347 0 0 1-4.335-4.335V8.948a4.347 4.347 0 0 1 4.334-4.335zM98.722.067v10.085l.089-.1L114.423.067h8.146L110.021 7.9l15.546 10.943h-8.235l-11.723-8.19-6.887 4.3v3.89h-4.558V.067h4.558zM154.607.1l17.162 18.744H150.44l4.546-4.558h6.441l-6.775-7.41-10.932 11.968h-5.884L154.607.1z" fill="#2B2A28"/></svg>
